X: 49
T:Missa Veni sancte spiritus / Sanctus
N: Derived from Jos0406d-Missa_Veni_sancte_spiritus-Sanctus.krn
C: Josquin des Prez
%%abc-version 2.0
%%abcx-abcm2ps-target-version 5.9.1 (29 Sep 2008)
%%abc-creator hum2abc beta
%%abcx-conversion-date 2019/02/12 16:15:40
%%abc-edited-by Jesse Rodin
%%abc-edited-by Victoria Chang 2011/05/04
%%abcx-initial-encoding-date 2011/05/04/
%%humdrum-veritas 3209888121
%%humdrum-veritas-data 620753826
%%linebreak <none>
%%barnumbers 0
L: 1/4
M: 3/1
Q: 1/2=120
V: 1 clef=treble
V: 2 clef=treble-8
V: 3 clef=treble-8
V: 4 clef=treble-8
V: 5 clef=treble-8
V: 6 clef=bass
K: C
[V:1] G12 | 
[V:2] z12 | 
[V:3] G6A2B4 | 
[V:4] z12 | 
[V:5] G8G4 | 
[V:6] z12 | 
[V:1] E4F6D2 | 
[V:2] z12 | 
[V:3] c4d4z2f2- | 
[V:4] z12 | 
[V:5] A4D8 | 
[V:6] z12 | 
[V:1] D4F4G2A2- | 
[V:2] z12 | 
[V:3] fedcd2A2B2c2 | 
[V:4] z12 | 
[V:5] z4D4G2F2 | 
[V:6] z12 | 
[V:1] AGFED2G4^F2 | 
[V:2] z12 | 
[V:3] d3cB2c2A4 | 
[V:4] z12 | 
[V:5] D2F2G2C2D4 | 
[V:6] z12 | 
[V:1] G3ABcd2e2d2- | 
[V:2] z12 | 
[V:3] G2d4B2c2B2 | 
[V:4] G12- | 
[V:5] z4z2D2C2D2- | 
[V:6] G,,8C,2G,,2- | 
[V:1] dcBAG2c4B2 | 
[V:2] z12 | 
[V:3] G2g3fe2d4 | 
[V:4] G12 | 
[V:5] D4E2C2D4 | 
[V:6] G,,A,,B,,2C,4G,,4 | 
[V:1] c8z4 | 
[V:2] z12 | 
[V:3] c3B/A/G2c3de2 | 
[V:4] E12 | 
[V:5] E2G4A3Bc2 | 
[V:6] C,6A,,2A,,4 | 
[V:1] A6d3cA2 | 
[V:2] z12 | 
[V:3] d12 | 
[V:4] F12 | 
[V:5] d2A4B2A2d2- | 
[V:6] D,8z2D,2 | 
[V:1] B6A2d3c | 
[V:2] z12 | 
[V:3] z2d3ef4d2- | 
[V:4] D12 | 
[V:5] dcBAG2F3E/D/G2- | 
[V:6] B,,2G,,4D,3C,B,,A,, | 
[V:1] B2A2G2A2D2d2- | 
[V:2] z12 | 
[V:3] def2e2dcB4 | 
[V:4] z12 | 
[V:5] G2F2G2D2GABc | 
[V:6] G,,2D,2E,2F,2G,3F,/E,/ | 
[V:1] dcBAB2A4G2 | 
[V:2] z12 | 
[V:3] z2d3ef2d4 | 
[V:4] z12 | 
[V:5] d2G4A2_B4 | 
[V:6] D,2G,4F,2G,4 | 
[V:1] A8z4 | 
[V:2] z12 | 
[V:3] d8f4 | 
[V:4] F8A4 | 
[V:5] A8d4 | 
[V:6] D,8D,4 | 
[V:1] d12 | 
[V:2] z12 | 
[V:3] g4d8 | 
[V:4] G8F4 | 
[V:5] z2d3cB2A4 | 
[V:6] B,,2G,,2B,,3C,D,4 | 
[V:1] B6G2B3c | 
[V:2] z12 | 
[V:3] z2g4e3fg2 | 
[V:4] G12 | 
[V:5] G3AB2c2B2e2 | 
[V:6] E,12 | 
[V:1] d3cB2G2A4 | 
[V:2] z12 | 
[V:3] f2d4g4^f2 | 
[V:4] z12 | 
[V:5] A2B4c2A4 | 
[V:6] D,4z4D,4 | 
[V:1] B4z2d3cB2 | 
[V:2] z12 | 
[V:3] g8d3e | 
[V:4] G12 | 
[V:5] G2F2E2D2z2D2- | 
[V:6] G,,8G,,4 | 
[V:1] A2c3BAGFEF2 | 
[V:2] z12 | 
[V:3] f2e4c2d4 | 
[V:4] A12 | 
[V:5] D2E2C2E2D4 | 
[V:6] D,2C,2A,,4D,4 | 
[V:1] G2E6D4 | 
[V:2] z12 | 
[V:3] g8z4 | 
[V:4] G8z4 | 
[V:5] z4z4D4 | 
[V:6] E,2C,4B,,A,,B,,4 | 
[V:1] C4z4c3B | 
[V:2] z12 | 
[V:3] e8e4 | 
[V:4] A8A4 | 
[V:5] E2C3DEFE2C2- | 
[V:6] A,,12 | 
[V:1] A2G2A2c2B2G2- | 
[V:2] z12 | 
[V:3] e4z2A2B2c2 | 
[V:4] c8G4 | 
[V:5] CDE2F2E2E4 | 
[V:6] z4A,,4E,4 | 
[V:1] G2F2G4z4 | 
[V:2] z12 | 
[V:3] d2f2e2d4^c2 | 
[V:4] A4G8 | 
[V:5] z12 | 
[V:6] D,4E,8 | 
[V:1] A12 | 
[V:2] z12 | 
[V:3] d2f3ed2c2d2 | 
[V:4] F8z2F2 | 
[V:5] A8A3B | 
[V:6] D,8F,4 | 
[V:1] G2F2G4F2A2- | 
[V:2] z12 | 
[V:3] e2f2e4z2c2- | 
[V:4] G2A4G2A4 | 
[V:5] c2d4c2d2A2 | 
[V:6] E,2D,2E,4D,2F,2- | 
[V:1] A2G2E2G3AB2 | 
[V:2] z12 | 
[V:3] cdefg2e2e4 | 
[V:4] c8B4 | 
[V:5] F2G2z2G3FED | 
[V:6] F,2E,2C,3D,E,4 | 
[V:1] c3BAGG4^F2 | 
[V:2] z12 | 
[V:3] z2e3dcBd4 | 
[V:4] A2c3BAGA4 | 
[V:5] C4z2C2F3D | 
[V:6] A,,3B,,C,2E,2D,4 | 
[V:1] G12 ||  
[V:2] z12 ||  
[V:3] d12 ||  
[V:4] G12 ||  
[V:5] D12 ||  
[V:6] G,,12 ||  
[V:1]  [K:C] [K:clef=treble][M:2/1]G6E2 | 
[V:2]  [K:C] [K:clef=treble-8][M:2/1]z8 | 
[V:3]  [K:C] [K:clef=treble-8][M:2/1]z8 | 
[V:4]  [K:C] [K:clef=treble-8][M:2/1]z8 | 
[V:5]  [K:C] [K:clef=treble-8][M:2/1]G3FG2A2 | 
[V:6]  [K:C] [K:clef=bass][M:2/1]z8 | 
[V:1] F3GA2D2 | 
[V:2] d6B2 | 
[V:3] z8 | 
[V:4] z8 | 
[V:5] D3EF2G2 | 
[V:6] z8 | 
[V:1] E2G4F2 | 
[V:2] c3de2A2 | 
[V:3] z8 | 
[V:4] z8 | 
[V:5] C4z2D2 | 
[V:6] z8 | 
[V:1] D2F3GAB | 
[V:2] B2d4c2 | 
[V:3] z8 | 
[V:4] z8 | 
[V:5] G2F2D2F2- | 
[V:6] z8 | 
[V:1] c2A4GF | 
[V:2] A2c3def | 
[V:3] z8 | 
[V:4] z8 | 
[V:5] F2F4ED | 
[V:6] z8 | 
[V:1] E4G4- | 
[V:2] g2e4dc | 
[V:3] z8 | 
[V:4] z8 | 
[V:5] C2c4BA | 
[V:6] z4C,4 | 
[V:1] G4F4- | 
[V:2] B4d4- | 
[V:3] z8 | 
[V:4] z8 | 
[V:5] G4A4 | 
[V:6] E,4D,4- | 
[V:1] F4E4- | 
[V:2] d4c4- | 
[V:3] z8 | 
[V:4] z8 | 
[V:5] F2A4GF | 
[V:6] D,4A,,4- | 
[V:1] E2C2D4 | 
[V:2] c4B4- | 
[V:3] z8 | 
[V:4] z8 | 
[V:5] E4D2d2- | 
[V:6] A,,4D,4 | 
[V:1] G4F4- | 
[V:2] B2G2A4 | 
[V:3] z8 | 
[V:4] z8 | 
[V:5] d2c2d4 | 
[V:6] E,4D,4- | 
[V:1] F2G2A4 | 
[V:2] d4c4- | 
[V:3] z8 | 
[V:4] z8 | 
[V:5] A4z4 | 
[V:6] D,2E,2F,4 | 
[V:1] G4c4 | 
[V:2] c2d2e4 | 
[V:3] z8 | 
[V:4] z8 | 
[V:5] E6F2 | 
[V:6] C,8 | 
[V:1] B6AG | 
[V:2] d4g4 | 
[V:3] z8 | 
[V:4] z8 | 
[V:5] G4D3E | 
[V:6] G,,8 | 
[V:1] A4F4 | 
[V:2] f6ed | 
[V:3] z8 | 
[V:4] z8 | 
[V:5] FGA4GF | 
[V:6] D,8 | 
[V:1] G4E4 | 
[V:2] e4c4 | 
[V:3] z8 | 
[V:4] z8 | 
[V:5] E3FG2A2 | 
[V:6] C,8 | 
[V:1] D8 | 
[V:2] d4B4 | 
[V:3] z8 | 
[V:4] z8 | 
[V:5] D4G4 | 
[V:6] B,,4G,,4 | 
[V:1] C4F4 | 
[V:2] A8 | 
[V:3] z8 | 
[V:4] z8 | 
[V:5] E4F4 | 
[V:6] A,,4D,4 | 
[V:1] E4D4 | 
[V:2] G8- | 
[V:3] z8 | 
[V:4] z8 | 
[V:5] G4D4 | 
[V:6] E,2C,4B,,2 | 
[V:1] C8 | 
[V:2] G8- | 
[V:3] z8 | 
[V:4] z8 | 
[V:5] E8 | 
[V:6] C,8 | 
[V:1] B,8 ||  
[V:2] G8 ||  
[V:3] z8 ||  
[V:4] z8 ||  
[V:5] D8 ||  
[V:6] G,,8 ||  
[V:1]  [K:C] [K:clef=treble][M:2/1]z8 | 
[V:2]  [K:C] [K:clef=treble-8][M:2/1]z8 | 
[V:3]  [K:C] [K:clef=treble-8][M:2/1]d6e2- | 
[V:4]  [K:C] [K:clef=treble-8][M:2/1]z8 | 
[V:5]  [K:C] [K:clef=treble-8][M:2/1]G8- | 
[V:6]  [K:C] [K:clef=bass][M:2/1]G,,3A,,B,,2C,2- | 
[V:1] z8 | 
[V:2] z8 | 
[V:3] edg4f2 | 
[V:4] z8 | 
[V:5] G4A4 | 
[V:6] C,2B,,2A,,4 | 
[V:1] G8- | 
[V:2] z8 | 
[V:3] gfede4 | 
[V:4] z8 | 
[V:5] B4c4- | 
[V:6] G,,4C,3D, | 
[V:1] G4A4 | 
[V:2] z8 | 
[V:3] z2d2e2f2 | 
[V:4] z8 | 
[V:5] c2B2A4 | 
[V:6] E,F,G,4F,2 | 
[V:1] B8 | 
[V:2] z8 | 
[V:3] e2d4g2- | 
[V:4] z8 | 
[V:5] G8 | 
[V:6] G,4G,,4 | 
[V:1] c6BA | 
[V:2] z8 | 
[V:3] g2^fe^f4 | 
[V:4] z8 | 
[V:5] z8 | 
[V:6] A,,8 | 
[V:1] B4d4- | 
[V:2] z8 | 
[V:3] g4z4 | 
[V:4] z8 | 
[V:5] d6c2 | 
[V:6] G,,8 | 
[V:1] d2c2B2A2 | 
[V:2] z8 | 
[V:3] d6e2- | 
[V:4] z8 | 
[V:5] B2A2G2c2- | 
[V:6] z8 | 
[V:1] G3FG2A2- | 
[V:2] z8 | 
[V:3] e2c3de2 | 
[V:4] z8 | 
[V:5] cde3dcB | 
[V:6] z4C,4 | 
[V:1] A2GFE4 | 
[V:2] z8 | 
[V:3] d2A3Bc2 | 
[V:4] z8 | 
[V:5] A2d4c2 | 
[V:6] D,4A,,4 | 
[V:1] D3EFGA2- | 
[V:2] z8 | 
[V:3] d2B2c2e2 | 
[V:4] z8 | 
[V:5] B2G2A4 | 
[V:6] B,,4A,,4 | 
[V:1] AGG4^F2 | 
[V:2] z8 | 
[V:3] d2Bcd4 | 
[V:4] z8 | 
[V:5] F2G2A4 | 
[V:6] D,2E,2D,4 | 
[V:1] G8 ||  
[V:2] z8 ||  
[V:3] d8 ||  
[V:4] z8 ||  
[V:5] G8 ||  
[V:6] G,,8 ||  
[V:1]  [K:C] [K:clef=treble][M:3/1]z12 | 
[V:2]  [K:C] [K:clef=treble-8][M:3/1]z12 | 
[V:3]  [K:C] [K:clef=treble-8][M:3/1]g8e4 | 
[V:4]  [K:C] [K:clef=treble-8][M:3/1]z12 | 
[V:5]  [K:C] [K:clef=treble-8][M:3/1]G4B4c4 | 
[V:6]  [K:C] [K:clef=bass][M:3/1]z12 | 
[V:1] d8B4 | 
[V:2] z12 | 
[V:3] f6e2d4 | 
[V:4] z12 | 
[V:5] d8d4 | 
[V:6] z4z4G,4 | 
[V:1] c6B2A4 | 
[V:2] z12 | 
[V:3] c4A8 | 
[V:4] z12 | 
[V:5] A4c8 | 
[V:6] A,8F,4 | 
[V:1] G8z4 | 
[V:2] z12 | 
[V:3] B8d4 | 
[V:4] d8B4- | 
[V:5] B8z4 | 
[V:6] G,12 | 
[V:1] G8A4- | 
[V:2] z12 | 
[V:3] e8c4- | 
[V:4] B4c8 | 
[V:5] G8F4- | 
[V:6] E,8F,4- | 
[V:1] A4F8 | 
[V:2] z12 | 
[V:3] c4d8 | 
[V:4] A8B4 | 
[V:5] F12 | 
[V:6] F,4D,8 | 
[V:1] E4C4F4- | 
[V:2] z12 | 
[V:3] e8A4 | 
[V:4] c4e6d2 | 
[V:5] G4A4F4 | 
[V:6] C,4A,,4D,4- | 
[V:1] F4E8 | 
[V:2] z12 | 
[V:3] A8z4 | 
[V:4] d8^c4 | 
[V:5] D4E8 | 
[V:6] D,4A,,8 | 
[V:1] D12 | 
[V:2] z12 | 
[V:3] A8A4 | 
[V:4] d6cBA4 | 
[V:5] F6G2A4 | 
[V:6] D,8D,4 | 
[V:1] z4z4A4 | 
[V:2] z12 | 
[V:3] B4c8 | 
[V:4] G4A8 | 
[V:5] D4E4C4 | 
[V:6] B,,4A,,8 | 
[V:1] B6c2d4 | 
[V:2] z12 | 
[V:3] d6e2f4 | 
[V:4] D12 | 
[V:5] G6E2D4 | 
[V:6] G,,8z4 | 
[V:1] c4e6d2 | 
[V:2] z12 | 
[V:3] e4c4f4- | 
[V:4] E8A4- | 
[V:5] A,12 | 
[V:6] C,8D,4- | 
[V:1] d8^c4 | 
[V:2] z12 | 
[V:3] f4e8 | 
[V:4] A12 | 
[V:5] D4E4C4 | 
[V:6] D,4A,,8 | 
[V:1] d8z4 | 
[V:2] z12 | 
[V:3] d12 | 
[V:4] F8D4 | 
[V:5] F4A4G2A2 | 
[V:6] D,6C,2B,,2A,,2 | 
[V:1] d8B4 | 
[V:2] z12 | 
[V:3] g8e4 | 
[V:4] G12 | 
[V:5] B2c2d8 | 
[V:6] G,,8G,,4 | 
[V:1] c4A8 | 
[V:2] z12 | 
[V:3] f8d4 | 
[V:4] A8F4 | 
[V:5] c4F4A4 | 
[V:6] C,4D,8 | 
[V:1] B8G4 | 
[V:2] z12 | 
[V:3] e6c2c4 | 
[V:4] G8E4 | 
[V:5] G4B4c4- | 
[V:6] B,,4G,,4C,4 | 
[V:1] A8F4 | 
[V:2] z12 | 
[V:3] d12 | 
[V:4] F8D4 | 
[V:5] c4A8 | 
[V:6] A,,4D,8 | 
[V:1] G4E8 | 
[V:2] z12 | 
[V:3] B4c6A2 | 
[V:4] D4C8 | 
[V:5] G4c4e4 | 
[V:6] G,,4A,,8 | 
[V:1] F8D4 | 
[V:2] z12 | 
[V:3] A4B6G2 | 
[V:4] F8G4 | 
[V:5] d12 | 
[V:6] D,8B,,4 | 
[V:1] E6C2C4 | 
[V:2] z12 | 
[V:3] G8z4 | 
[V:4] E8F4 | 
[V:5] c12 | 
[V:6] C,8A,,4 | 
[V:1] z4C4D4 | 
[V:2] z12 | 
[V:3] G4A4B4 | 
[V:4] D4E4z4 | 
[V:5] z4z4B4 | 
[V:6] B,,4A,,4G,,4 | 
[V:1] E4F4G4 | 
[V:2] z12 | 
[V:3] c4d4e4 | 
[V:4] E4D4G4 | 
[V:5] G4A4B2G2 | 
[V:6] C,4F,4E,4 | 
[V:1] A4B4c4 | 
[V:2] z12 | 
[V:3] f4g4e4 | 
[V:4] F3ED4C4 | 
[V:5] d8z4 | 
[V:6] D,4G,,4A,,4 | 
[V:1] d6c2A4 | 
[V:2] z12 | 
[V:3] d6e2f4 | 
[V:4] G8F4 | 
[V:5] B6A2A4 | 
[V:6] B,,6C,2D,4 | 
[V:1] B4c8 | 
[V:2] z12 | 
[V:3] d4c4A4 | 
[V:4] G4A8 | 
[V:5] G6^FE^F4 | 
[V:6] B,,4A,,8 | 
[V:1] B12 ||  
[V:2] z12 ||  
[V:3] d12 ||  
[V:4] D12 ||  
[V:5] G12 ||  
[V:6] G,,12 ||  
[V:1]  [K:C] [K:clef=treble][M:2/1]G8 | 
[V:2]  [K:C] [K:clef=treble-8][M:2/1]z8 | 
[V:3]  [K:C] [K:clef=treble-8][M:2/1]d4d2e2- | 
[V:4]  [K:C] [K:clef=treble-8][M:2/1]z8 | 
[V:5]  [K:C] [K:clef=treble-8][M:2/1]G8 | 
[V:6]  [K:C] [K:clef=bass][M:2/1]z8 | 
[V:1] G4A4- | 
[V:2] z8 | 
[V:3] edcBA2d2 | 
[V:4] z8 | 
[V:5] G4F4 | 
[V:6] z8 | 
[V:1] A2GFG4 | 
[V:2] z8 | 
[V:3] e2d3^c^cB | 
[V:4] z8 | 
[V:5] E8 | 
[V:6] z8 | 
[V:1] F8 | 
[V:2] z8 | 
[V:3] d8 | 
[V:4] z8 | 
[V:5] D8 | 
[V:6] D,8 | 
[V:1] G8- | 
[V:2] z8 | 
[V:3] z2d3cBA | 
[V:4] z8 | 
[V:5] G8 | 
[V:6] B,,3C,B,,2E,2- | 
[V:1] G8 | 
[V:2] z8 | 
[V:3] GABcd2g2- | 
[V:4] z8 | 
[V:5] z8 | 
[V:6] E,2D,C,B,,2G,,2 | 
[V:1] A8 | 
[V:2] z8 | 
[V:3] g2fefedc | 
[V:4] z8 | 
[V:5] z8 | 
[V:6] D,8 | 
[V:1] G8 | 
[V:2] z8 | 
[V:3] B4z2e2 | 
[V:4] z8 | 
[V:5] G3AB2c2 | 
[V:6] z2E,4C,2 | 
[V:1] z8 | 
[V:2] z8 | 
[V:3] f2e2c4 | 
[V:4] z8 | 
[V:5] A2c3BAG | 
[V:6] D,2C,2F,4- | 
[V:1] z8 | 
[V:2] z8 | 
[V:3] z2e2f3e/d/ | 
[V:4] z8 | 
[V:5] A2c4B2 | 
[V:6] F,2E,2D,4 | 
[V:1] c3Bc2d2- | 
[V:2] z8 | 
[V:3] e2g2a2g2- | 
[V:4] z8 | 
[V:5] c2G2c2B2 | 
[V:6] C,4z2G,2 | 
[V:1] dcc4B2 | 
[V:2] z8 | 
[V:3] g2f2g4 | 
[V:4] z8 | 
[V:5] c4d4 | 
[V:6] A,4G,4 | 
[V:1] c8 | 
[V:2] z8 | 
[V:3] e8 | 
[V:4] z8 | 
[V:5] c4z4 | 
[V:6] z4C,4 | 
[V:1] z4c4 | 
[V:2] z8 | 
[V:3] f4f4 | 
[V:4] z8 | 
[V:5] A8 | 
[V:6] F,6F,2 | 
[V:1] c6c2 | 
[V:2] z8 | 
[V:3] e8- | 
[V:4] z8 | 
[V:5] G4G4 | 
[V:6] C,8- | 
[V:1] G8 | 
[V:2] z8 | 
[V:3] e8 | 
[V:4] z8 | 
[V:5] c4z2c2- | 
[V:6] C,8 | 
[V:1] A6B2 | 
[V:2] z8 | 
[V:3] c4d4 | 
[V:4] z8 | 
[V:5] cBAGF4 | 
[V:6] z2F,3E,D,2 | 
[V:1] c4d4 | 
[V:2] z8 | 
[V:3] e4d4 | 
[V:4] z8 | 
[V:5] E2A4^G2 | 
[V:6] C,2A,,2B,,4 | 
[V:1] c4d2e2- | 
[V:2] z8 | 
[V:3] z4z2c2- | 
[V:4] z8 | 
[V:5] A2c2B2G2 | 
[V:6] A,,2A,2G,2E,2- | 
[V:1] e2d2c2d2- | 
[V:2] z8 | 
[V:3] c2B2c2B2 | 
[V:4] z8 | 
[V:5] G4z4 | 
[V:6] E,F,G,2A,2G,2- | 
[V:1] d2e3dcB | 
[V:2] z8 | 
[V:3] G2c3de2 | 
[V:4] z8 | 
[V:5] z2G6 | 
[V:6] G,F,E,D,C,4 | 
[V:1] A2c4B2 | 
[V:2] z8 | 
[V:3] f2e3fg2 | 
[V:4] z8 | 
[V:5] F2A4G2 | 
[V:6] D,2A,,2E,4 | 
[V:1] A2G2A2B2- | 
[V:2] z8 | 
[V:3] c3BA2G2 | 
[V:4] z8 | 
[V:5] A2c4B2 | 
[V:6] A,,2E,2F,2G,2 | 
[V:1] BAG4^F2 | 
[V:2] z8 | 
[V:3] B2c2d4 | 
[V:4] z8 | 
[V:5] G4A4 | 
[V:6] E,4D,4 | 
[V:1] G8 ||  
[V:2] z8 ||  
[V:3] d8 ||  
[V:4] z8 ||  
[V:5] G8 ||  
[V:6] G,,8 ||  



